X:1
T:Lord Beichan
M:3/4
L:1/8
K:D
 A2| A/2 d3/2 d2 F2| G3/2 A/2 =c2 B3/2- A/2| A/2 d3/2 d2 e3/2- d/2|\
 B3/2 A/2 A2 z B| A3/2 F/2 D2E-F| G3/2 G/2 F3 A| B/2 d3/2 A2 G3/2 F/2|\
 E3/2 D/2 D2-||
